icons/svg/special_poi/brandenburg_gate.svg

<?xml version="1.0" encoding="UTF-8" standalone="no"?>
<!-- Created with Inkscape (http://www.inkscape.org/) -->

<svg
   xmlns:dc="http://purl.org/dc/elements/1.1/"
   xmlns:cc="http://creativecommons.org/ns#"
   xmlns:rdf="http://www.w3.org/1999/02/22-rdf-syntax-ns#"
   xmlns:svg="http://www.w3.org/2000/svg"
   xmlns="http://www.w3.org/2000/svg"
   xmlns:sodipodi="http://sodipodi.sourceforge.net/DTD/sodipodi-0.dtd"
   xmlns:inkscape="http://www.inkscape.org/namespaces/inkscape"
   version="1.0"
   width="580"
   height="580"
   id="svg2"
   sodipodi:version="0.32"
   inkscape:version="0.48.4 r9939"
   sodipodi:docname="big_ben.svg"
   inkscape:output_extension="org.inkscape.output.svg.inkscape">
  <metadata
     id="metadata2975">
    <rdf:RDF>
      <cc:Work
         rdf:about="">
        <dc:format>image/svg+xml</dc:format>
        <dc:type
           rdf:resource="http://purl.org/dc/dcmitype/StillImage" />
        <cc:license
           rdf:resource="http://web.resource.org/cc/PublicDomain" />
        <dc:language>en</dc:language>
        <dc:title></dc:title>
      </cc:Work>
    </rdf:RDF>
  </metadata>
  <sodipodi:namedview
     inkscape:window-height="995"
     inkscape:window-width="1280"
     inkscape:pageshadow="2"
     inkscape:pageopacity="0.0"
     guidetolerance="10.0"
     gridtolerance="10.0"
     objecttolerance="10.0"
     borderopacity="1.0"
     bordercolor="#666666"
     pagecolor="#ffffff"
     id="base"
     inkscape:zoom="0.46083856"
     inkscape:cx="339.15827"
     inkscape:cy="489.52721"
     inkscape:window-x="0"
     inkscape:window-y="0"
     inkscape:current-layer="svg2"
     showgrid="false"
     inkscape:window-maximized="1" />
  <defs
     id="defs4">
    <inkscape:perspective
       sodipodi:type="inkscape:persp3d"
       inkscape:vp_x="0 : 290 : 1"
       inkscape:vp_y="0 : 1000 : 0"
       inkscape:vp_z="580 : 290 : 1"
       inkscape:persp3d-origin="290 : 193.33333 : 1"
       id="perspective2441" />
    <inkscape:perspective
       id="perspective3452"
       inkscape:persp3d-origin="30 : 20 : 1"
       inkscape:vp_z="60 : 30 : 1"
       inkscape:vp_y="0 : 1000 : 0"
       inkscape:vp_x="0 : 30 : 1"
       sodipodi:type="inkscape:persp3d" />
  </defs>
  <g
     id="g1327">
    <path
       d="M 66.275,1.768 C 24.94,1.768 1.704,23.139 1.704,66.804 L 1.704,516.927 C 1.704,557.771 22.599,579.156 63.896,579.156 L 515.92,579.156 C 557.227,579.156 578.149,558.841 578.149,516.927 L 578.149,66.804 C 578.149,24.203 557.227,1.768 514.628,1.768 C 514.624,1.768 66.133,1.625 66.275,1.768 z "
       style="fill:#111;stroke:#eee;stroke-width:3.40799999"
       id="path1329" />
  </g>
  <path
     style="fill:#ffffff;fill-opacity:1"
     inkscape:connector-curvature="0"
     d="m 109.77581,289.5945 c -9.948385,0 -18.022427,-8.07404 -18.022427,-18.02242 v -36.04484 c 0,-9.94837 8.074042,-18.02242 18.022427,-18.02242 h 360.44838 c 9.94838,0 18.02243,8.07405 18.02243,18.02242 v 36.04484 c 0,9.94838 -8.07405,18.02242 -18.02243,18.02242 H 109.77581 z"
     id="path3" />
  <path
     style="fill:#ffffff;fill-opacity:1"
     inkscape:connector-curvature="0"
     d="m 127.79823,235.52724 c -9.94838,0 -18.02242,-8.07404 -18.02242,-18.02242 v -36.04484 c 0,-9.94838 8.07404,-18.02242 18.02242,-18.02242 h 324.40354 c 9.94838,0 18.02242,8.07404 18.02242,18.02242 v 36.04484 c 0,9.94838 -8.07404,18.02242 -18.02242,18.02242 H 127.79823 z"
     id="path5" />
  <path
     style="fill:#ffffff;fill-opacity:1"
     inkscape:connector-curvature="0"
     d="m 109.77581,253.54965 c -9.948385,0 -27.358033,-10.12859 -40.153955,-24.02388 l 0,0 C 55.149851,213.81022 52.031977,199.4824 64.485465,199.4824 l 451.029065,0 c 12.45349,0 9.33562,14.34585 -5.13638,30.04337 l 0,0 c -12.79592,13.89529 -30.20558,24.02388 -40.15396,24.02388 l -360.44838,0 z"
     id="path7-4" />
  <path
     style="fill:#ffffff;fill-opacity:1"
     inkscape:connector-curvature="0"
     d="m 127.79823,199.4824 c -9.94838,0 -27.35804,-10.1286 -40.153953,-24.02388 l 0,0 C 73.172273,159.74297 70.054399,145.41514 82.507888,145.41514 l 414.984222,0 c 12.4535,0 9.33563,14.34584 -5.13639,30.04338 l 0,0 c -12.79591,13.89528 -30.20557,24.02388 -40.15395,24.02388 l -324.40354,0 z"
     id="path9" />
  <path
     style="fill:#ffffff;fill-opacity:1"
     inkscape:connector-curvature="0"
     d="m 278.82609,66.350781 0,0 c -3.9469,-3.063806 -4.81198,-5.857281 -1.40574,-5.857281 l 12.57964,3.496341 12.57966,-3.514367 c 3.40623,0 2.55918,2.793475 -1.40576,5.857291 l 0,0 c -3.49634,2.703364 -8.18217,7.245005 -11.1739,7.245005 -2.99171,0.018 -7.67754,-4.523624 -11.1739,-7.226989 z"
     id="path11" />
  <path
     style="fill:#ffffff;fill-opacity:1"
     inkscape:connector-curvature="0"
     d="m 360.39556,108.25291 c 0.12617,-2.30687 -0.23429,-10.579155 -0.93716,-12.651738 -0.46858,-1.423777 -3.51437,-3.928886 -6.1096,-3.676581 -3.65855,0.36046 -3.53239,1.531913 -5.83926,4.523634 -1.38772,1.802243 -2.72139,3.766695 -3.65855,5.839265 -3.18997,7.01072 -18.50903,14.92257 -23.77157,16.61668 0.61275,-2.79348 2.39698,-7.46129 2.46906,-9.19144 0.0901,-2.23478 -0.16219,-10.236741 -0.6488,-12.255247 -0.3244,-1.369708 -2.43303,-3.802733 -4.23527,-3.550418 -2.54116,0.342424 -2.45105,1.477834 -4.05505,4.379446 -0.9732,1.748179 -1.89234,3.640529 -2.54116,5.659049 -1.56794,4.77593 -3.69459,7.29907 -6.05552,9.02923 0.37846,-1.36971 0.73891,-2.50512 1.04529,-3.00975 6.30785,-10.63323 -0.97321,-20.329285 -12.11106,-20.833914 -3.02777,-0.126162 -4.12714,0.198246 -6.54214,1.694107 -1.89235,1.171452 -4.28933,2.631271 -5.31662,-0.378476 -1.13541,-3.352163 11.39017,-7.983933 7.85778,-10.561136 -2.21676,-1.603996 -13.84122,5.298594 -15.76962,6.992701 -2.99172,2.649296 -2.27082,4.920117 -0.99123,8.452509 1.47784,4.073073 4.52363,10.723339 2.55918,15.084769 -2.19873,4.9021 -5.98344,-4.03702 -6.79445,-6.47004 -0.66683,-2.01852 -1.58598,-3.91087 -2.54116,-5.659049 -1.60399,-2.901612 -1.51388,-4.037022 -4.05504,-4.379446 -1.80225,-0.252315 -3.91087,2.18071 -4.23527,3.550418 -0.48661,2.018506 -0.73892,10.020467 -0.64881,12.255247 0.0721,1.73015 1.83829,6.41598 2.46908,9.19144 -5.26255,-1.71214 -20.56359,-9.62399 -23.77158,-16.61668 -0.97321,-2.0906 -2.28885,-4.037022 -3.6946,-5.857291 -2.30687,-2.991721 -2.18071,-4.163174 -5.83926,-4.523624 -2.59523,-0.252314 -5.62299,2.252804 -6.09158,3.676571 -0.70286,2.090609 -1.06332,10.344874 -0.93716,12.669764 0.10813,2.14467 3.92888,0.27034 3.92888,5.91136 0,5.83926 -3.65854,7.04677 -3.65854,12.39942 0,5.35266 1.13541,15.46324 2.54116,19.13982 0,0 52.58941,16.07599 55.99565,14.95859 0.21626,-0.0721 1.26157,-0.27033 2.61326,-0.52264 3.55041,20.14906 7.245,26.31274 8.97515,26.31274 1.71214,0 5.33465,-6.0195 8.84901,-26.33076 1.42378,0.27033 2.50512,0.46858 2.73941,0.54066 3.38821,1.1174 55.99566,-14.95859 55.99566,-14.95859 1.40575,-3.65856 2.54116,-13.80518 2.54116,-19.13982 0,-5.33464 -3.65855,-6.56016 -3.65855,-12.39942 0,-5.64102 3.82076,-3.76669 3.92888,-5.91136 z"
     id="path13" />
  <path
     style="fill:#ffffff;fill-opacity:1"
     inkscape:connector-curvature="0"
     d="M 271.97758,523.88595 H 199.8879 V 235.52724 c 0,-9.94837 8.07405,-18.02242 18.02242,-18.02242 h 36.04484 c 9.94837,0 18.02242,8.07405 18.02242,18.02242 V 523.88595 z M 380.1121,235.52724 c 0,-9.94837 -8.07405,-18.02242 -18.02242,-18.02242 h -36.04484 c -9.94838,0 -18.02243,8.07405 -18.02243,18.02242 V 523.88595 H 380.1121 V 235.52724 z m 108.13452,0 c 0,-9.94837 -8.07405,-18.02242 -18.02243,-18.02242 h -36.04483 c -9.94838,0 -18.02242,8.07405 -18.02242,18.02242 v 288.35871 h 72.08968 V 235.52724 z m -324.40355,0 c 0,-9.94837 -8.07405,-18.02242 -18.02242,-18.02242 h -36.04484 c -9.948385,0 -18.022427,8.07405 -18.022427,18.02242 V 523.88595 H 163.84307 V 235.52724 z"
     id="path15" />
  <circle
     transform="matrix(18.022419,0,0,18.022419,55.708548,55.303043)"
     style="fill:#ffffff;fill-opacity:1"
     sodipodi:ry="0.219"
     sodipodi:rx="0.219"
     sodipodi:cy="0.264"
     sodipodi:cx="12.984"
     cx="12.984"
     cy="0.264"
     r="0.219"
     id="circle17" />
  <circle
     transform="matrix(18.022419,0,0,18.022419,55.708548,55.303043)"
     style="fill:#ffffff;fill-opacity:1"
     sodipodi:ry="0.403"
     sodipodi:rx="0.403"
     sodipodi:cy="1.687"
     sodipodi:cx="13.207"
     cx="13.207"
     cy="1.687"
     r="0.403"
     id="circle19" />
  <line
     style="fill:none;stroke:#ffffff;stroke-width:4.50560474;stroke-miterlimit:10;stroke-opacity:1"
     stroke-miterlimit="10"
     x1="290.45026"
     y1="70.135307"
     x2="290.45026"
     y2="105.09885"
     id="line21" />
</svg>

<svg width="580" height="580" viewBox="0 0 580 580" fill="none" xmlns="http://www.w3.org/2000/svg">
<g clip-path="url(#clip0)">
<path d="M66.275 1.76799C24.94 1.76799 1.70401 23.139 1.70401 66.804V516.927C1.70401 557.771 22.599 579.156 63.896 579.156H515.92C557.227 579.156 578.149 558.841 578.149 516.927V66.804C578.149 24.203 557.227 1.76799 514.628 1.76799C514.624 1.76799 66.133 1.62499 66.275 1.76799Z" fill="#111111" stroke="#EEEEEE" stroke-width="3.408"/>
<path d="M109.776 289.595C99.8274 289.595 91.7534 281.52 91.7534 271.572V235.527C91.7534 225.579 99.8274 217.505 109.776 217.505H470.224C480.173 217.505 488.247 225.579 488.247 235.527V271.572C488.247 281.52 480.173 289.595 470.224 289.595H109.776Z" fill="white"/>
<path d="M127.798 235.527C117.85 235.527 109.776 227.453 109.776 217.505V181.46C109.776 171.512 117.85 163.438 127.798 163.438H452.202C462.15 163.438 470.224 171.512 470.224 181.46V217.505C470.224 227.453 462.15 235.527 452.202 235.527H127.798Z" fill="white"/>
<path d="M109.776 253.55C99.8274 253.55 82.4178 243.421 69.6219 229.526C55.1499 213.81 52.032 199.482 64.4855 199.482H515.515C527.968 199.482 524.85 213.828 510.378 229.526C497.582 243.421 480.173 253.55 470.224 253.55H109.776V253.55Z" fill="white"/>
<path d="M127.798 199.482C117.85 199.482 100.44 189.354 87.6443 175.459C73.1723 159.743 70.0544 145.415 82.5079 145.415H497.492C509.946 145.415 506.828 159.761 492.356 175.459C479.56 189.354 462.15 199.482 452.202 199.482H127.798V199.482Z" fill="white"/>
<path d="M278.826 66.3508C274.879 63.287 274.014 60.4935 277.42 60.4935L290 63.9898L302.58 60.4755C305.986 60.4755 305.139 63.2689 301.174 66.3328C297.678 69.0361 292.992 73.5778 290 73.5778C287.008 73.5958 282.322 69.0541 278.826 66.3508Z" fill="white"/>
<path d="M360.396 108.253C360.522 105.946 360.161 97.6738 359.458 95.6012C358.99 94.1774 355.944 91.6723 353.349 91.9246C349.69 92.2851 349.816 93.4565 347.51 96.4482C346.122 98.2505 344.788 100.215 343.851 102.288C340.661 109.298 325.342 117.21 320.079 118.904C320.692 116.111 322.476 111.443 322.549 109.713C322.639 107.478 322.386 99.476 321.9 97.4575C321.575 96.0878 319.467 93.6548 317.664 93.9071C315.123 94.2495 315.213 95.3849 313.609 98.2865C312.636 100.035 311.717 101.927 311.068 103.946C309.5 108.722 307.374 111.245 305.013 112.975C305.391 111.605 305.752 110.47 306.058 109.965C312.366 99.3318 305.085 89.6358 293.947 89.1311C290.919 89.005 289.82 89.3294 287.405 90.8252C285.512 91.9967 283.115 93.4565 282.088 90.4468C280.953 87.0946 293.478 82.4628 289.946 79.8856C287.729 78.2816 276.105 85.1842 274.176 86.8783C271.185 89.5276 271.906 91.7985 273.185 95.3308C274.663 99.4039 277.709 106.054 275.744 110.416C273.546 115.318 269.761 106.379 268.95 103.946C268.283 101.927 267.364 100.035 266.409 98.2865C264.805 95.3849 264.895 94.2495 262.354 93.9071C260.551 93.6548 258.443 96.0878 258.118 97.4575C257.632 99.476 257.379 107.478 257.47 109.713C257.542 111.443 259.308 116.129 259.939 118.904C254.676 117.192 239.375 109.28 236.167 102.288C235.194 100.197 233.878 98.2505 232.472 96.4302C230.166 93.4385 230.292 92.267 226.633 91.9066C224.038 91.6543 221.01 94.1594 220.542 95.5832C219.839 97.6738 219.478 105.928 219.604 108.253C219.713 110.398 223.533 108.523 223.533 114.164C223.533 120.004 219.875 121.211 219.875 126.564C219.875 131.916 221.01 142.027 222.416 145.704C222.416 145.704 275.005 161.78 278.412 160.662C278.628 160.59 279.673 160.392 281.025 160.139C284.575 180.289 288.27 186.452 290 186.452C291.712 186.452 295.335 180.433 298.849 160.121C300.273 160.392 301.354 160.59 301.588 160.662C304.977 161.78 357.584 145.704 357.584 145.704C358.99 142.045 360.125 131.898 360.125 126.564C360.125 121.229 356.467 120.004 356.467 114.164C356.467 108.523 360.287 110.398 360.396 108.253V108.253Z" fill="white"/>
<path d="M271.978 523.886H199.888V235.527C199.888 225.579 207.962 217.505 217.91 217.505H253.955C263.904 217.505 271.978 225.579 271.978 235.527V523.886ZM380.112 235.527C380.112 225.579 372.038 217.505 362.09 217.505H326.045C316.096 217.505 308.022 225.579 308.022 235.527V523.886H380.112V235.527ZM488.247 235.527C488.247 225.579 480.173 217.505 470.224 217.505H434.179C424.231 217.505 416.157 225.579 416.157 235.527V523.886H488.247V235.527ZM163.843 235.527C163.843 225.579 155.769 217.505 145.821 217.505H109.776C99.8274 217.505 91.7534 225.579 91.7534 235.527V523.886H163.843V235.527Z" fill="white"/>
<path d="M289.712 64.0079C291.891 64.0079 293.659 62.2408 293.659 60.061C293.659 57.8811 291.891 56.114 289.712 56.114C287.532 56.114 285.765 57.8811 285.765 60.061C285.765 62.2408 287.532 64.0079 289.712 64.0079Z" fill="white"/>
<path d="M293.731 92.9699C297.742 92.9699 300.994 89.7181 300.994 85.7069C300.994 81.6956 297.742 78.4438 293.731 78.4438C289.719 78.4438 286.468 81.6956 286.468 85.7069C286.468 89.7181 289.719 92.9699 293.731 92.9699Z" fill="white"/>
<path d="M290.45 70.1353V105.099" stroke="white" stroke-width="4.5056" stroke-miterlimit="10"/>
</g>
<defs>
<clipPath id="clip0">
<path d="M0 0H580V580H0V0Z" fill="white"/>
</clipPath>
</defs>
</svg>
